X: 3
T: Julia Delaney's
R: reel
M: 4/4
L: 1/8
K: Ddor
|: dcAG F2 EF | E2 CE FED^c | dcAG F2 DF | Add^c defe |
dcAG F2 EF | E2 CE FE D^c | dcAG F2 DF | Add^c d4:|
|: f2 fe fagf | ecgc acgc | fede fagf | ed^ce d2 de|
f2 fe fagf |ecgc acgc | fede fdca |1 add^c d2 de:|2 add^c d4 ||


Tune 589	Setting 28265

